!!!COM: Palestrina, Giovanni Perluigi da
!!!OPR: In duplicibus minoribus (I)
!!!OTL: Agnus
**kern	**kern	**kern	**kern	**kern
*Ibass	*Itenor	*Itenor	*Icalto	*Icant
!Bassus	!Tenor 2	!Tenor 1	!Altus	!Cantus
*clefF4	*clefGv2	*clefGv2	*clefG2	*clefG2
*k[]	*k[]	*k[]	*k[]	*k[]
*E:phr	*E:phr	*E:phr	*E:phr	*E:phr
*M4/2	*M4/2	*M4/2	*M4/2	*M4/2
=1	=1	=1	=1	=1
0r	0r	0r	1.d	1r
.	.	.	.	[1a
.	.	.	2c	.
=2	=2	=2	=2	=2
0r	0r	0r	2d	2a]
.	.	.	2e	2g
.	.	.	2f	1a
.	.	.	4e	.
.	.	.	4d	.
=3	=3	=3	=3	=3
0r	1r	0r	2e	2g
.	.	.	2.d	2f
.	[1A	.	.	2e
.	.	.	4c	.
.	.	.	2c	2a
=4	=4	=4	=4	=4
0r	2A]	1.e	2A	2cc
.	2G	.	2B	2b
.	2A	.	2c	2a
.	2B	2d	2B	2g#
=5	=5	=5	=5	=5
0r	2c	1e	2A	2a
.	4B	.	2E	1g
.	4A	.	.	.
.	2B	2d	2G	.
.	[2A	2c	2A	2f
=6	=6	=6	=6	=6
1r	2A]	1B	1E	1e
.	2G#	.	.	.
[1D	1A	2A	2.F	1r
.	.	[2d	.	.
.	.	.	4G	.
=7	=7	=7	=7	=7
2D]	2r	2d]	4A	0r
.	.	.	4B	.
2C	1A	2e	2c	.
2D	.	2f	1B	.
2E	2G	4e	.	.
.	.	4d	.	.
=8	=8	=8	=8	=8
2F	1A	2.c	0r	0r
4E	.	.	.	.
4D	.	4B	.	.
2E	2G	2c	.	.
[2D	2F	2d	.	.
=9	=9	=9	=9	=9
2D]	1E	1e	0r	1r
2C#	.	.	.	.
4D	4F	1A	.	[1a
4E	4G	.	.	.
4F	4A	.	.	.
4G	4B	.	.	.
=10	=10	=10	=10	=10
4A	1c	0r	1.e	2a]
4B	.	.	.	.
1c	.	.	.	2g
.	1r	.	.	2a
2B	.	.	2d	2b
=11	=11	=11	=11	=11
2A	0r	0r	1e	2cc
2E	.	.	.	4b
.	.	.	.	4a
2G	.	.	2d	2b
2A	.	.	2c	[2a
=12	=12	=12	=12	=12
1E	2r	1r	2B	2a]
.	1e	.	1c	2g#
1F	.	2r	.	1a
.	2d	[2A	4B	.
.	.	.	4A	.
=13	=13	=13	=13	=13
1E	1e	2A]	1B	0r
.	.	2G#	.	.
2.F	2d	2.A	1r	.
.	2c	.	.	.
4E	.	4G	.	.
=14	=14	=14	=14	=14
2D	4B	2F	1r	0r
.	4A	.	.	.
2C	1A	2E	.	.
1BB	.	1D	1d	.
.	2G#	.	.	.
=15	=15	=15	=15	=15
1AA	2.A	1E	1c	0r
.	4G#	.	.	.
1r	4A	[1F	2c	.
.	4B	.	.	.
.	[2c	.	2A	.
=16	=16	=16	=16	=16
0r	2c]	1F]	2c	1a
.	4B	.	2d	.
.	4A	.	.	.
.	1B	1E	1e	1g
=17	=17	=17	=17	=17
1r	2c	0r	1.e	2g
.	2A	.	.	2c
1A	[1c	.	.	2e
.	.	.	4d	2f
.	.	.	4c	.
=18	=18	=18	=18	=18
1G	2c]	0r	1d	2.g
.	4B	.	.	.
.	4A	.	.	8f
.	.	.	.	8e
2G	2B	.	[1g	2d
2C	2c	.	.	[2e
=19	=19	=19	=19	=19
2E	2G	0r	2g]	2e]
2F	2A	.	4f	2c
.	.	.	4e	.
[1G	2B	.	2d	[1g
.	[2c	.	2e	.
=20	=20	=20	=20	=20
1G]	2c]	1d	4d	1g]
.	.	.	4G	.
.	2B	.	2.g	.
2C	4e	1c	.	1r
.	4d	.	4f	.
2E	4c	.	4e	.
.	4B	.	4d	.
=21	=21	=21	=21	=21
2.F	2.A	2c	1c	1r
.	.	2F	.	.
4E	4G	.	.	.
1D	1F	2A	1r	1f
.	.	2B	.	.
=22	=22	=22	=22	=22
0C	1G	2.c	2r	1e
.	.	.	4c	.
.	.	4B	4d	.
.	1r	4c	4e	2e
.	.	4d	4f	.
.	.	[2e	2g	2c
=23	=23	=23	=23	=23
0r	1A	2e]	2.c	2e
.	.	1c	.	2f
.	.	.	4d	.
.	1G	.	2e	1g
.	.	4B	4d	.
.	.	4A	4c	.
=24	=24	=24	=24	=24
0r	2G	2B	2d	1g
.	2C	2c	2e	.
.	2E	2B	2g	2r
.	2F	2A	2a	2c
=25	=25	=25	=25	=25
1C	1G	1c	1.g	2.e
.	.	.	.	4f
2E	2G	2B	.	2g
2F	2c	2A	4f	[2a
.	.	.	4e	.
=26	=26	=26	=26	=26
1G	2B	1B	1d	4a]
.	.	.	.	4g
.	1d	.	.	1g
1A	.	1c	1r	.
.	[2c	.	.	2f#
=27	=27	=27	=27	=27
1G	4c]	1d	1r	[0g
.	8B	.	.	.
.	8A	.	.	.
.	2B	.	.	.
2r	1G	2r	1d	.
[2G	.	[2B	.	.
=28	=28	=28	=28	=28
2G]	0r	2B]	2B	1g]
2E	.	2G	2.c	.
2.F	.	2.A	.	1r
.	.	.	4B	.
.	.	.	2c	.
4E	.	4G	.	.
=29	=29	=29	=29	=29
2F	1r	2A	2d	0r
2G	.	2B	2e	.
2.A	2r	1c	2f	.
.	[2c	.	[2e	.
4G	.	.	.	.
=30	=30	=30	=30	=30
1F	2c]	1A	2e]	1r
.	2A	.	2d	.
2.E	2.B	1r	[1e	2r
.	.	.	.	[2g
4F	4A	.	.	.
=31	=31	=31	=31	=31
2G	2B	2r	1e]	2g]
2A	2c	1A	.	2e
1D	2.d	.	1a	2.f
.	.	[2D	.	.
.	4c	.	.	4e
=32	=32	=32	=32	=32
0r	1B-	2D]	1d	2f
.	.	2.d	.	2g
.	1A	.	2f	2.a
.	.	4c	.	.
.	.	2c	2e	.
.	.	.	.	4g
=33	=33	=33	=33	=33
0r	1D	2A	1d	1f
.	.	2.B	.	.
.	2.E	.	[1g	1e
.	.	4G	.	.
.	.	[2c	.	.
.	4F	.	.	.
=34	=34	=34	=34	=34
2r	1G	2c]	0g]	1.d
1G	.	4B	.	.
.	.	4A	.	.
.	1r	4B	.	.
.	.	8c	.	.
.	.	8d	.	.
2E	.	2e	.	2g
=35	=35	=35	=35	=35
2.F	0r	2d	2r	2a
.	.	2c	1a	1cc
4E	.	.	.	.
2F	.	1d	.	.
2G	.	.	2g	2b
=36	=36	=36	=36	=36
2.A	2r	1c	2f	0a
.	1c	.	1e	.
4G	.	.	.	.
1F	.	1r	.	.
.	2A	.	2d	.
=37	=37	=37	=37	=37
2.E	2.B	0r	2e	1.g
.	.	.	2e	.
4F	4A	.	.	.
2G	2B	.	2d	.
2A	2c	.	[2c	2f#
=38	=38	=38	=38	=38
1G	1d	2r	2c]	1g
.	.	1G	2B	.
1C	1c	.	1e	2r
.	.	2E	.	[2cc
=39	=39	=39	=39	=39
2r	2.A	2.F	2c	2cc]
1D	.	.	2d	2a
.	4G	4E	.	.
.	2F	2F	2A	1dd
2BB	2D	2G	2B	.
=40	=40	=40	=40	=40
1.AA	0E	1.A	2c	0cc
.	.	.	4A	.
.	.	.	4B	.
.	.	.	4c	.
.	.	.	4d	.
2C	.	2G	[2e	.
=41	=41	=41	=41	=41
0D	1A	0F	2e]	1.a
.	.	.	4d	.
.	.	.	4c	.
.	[1A	.	1d	.
.	.	.	.	2b
=42	=42	=42	=42	=42
0AA	2A]	[0E	[0e	2.cc
.	2B	.	.	.
.	.	.	.	4b
.	1c	.	.	1a
=43	=43	=43	=43	=43
[0E	[0B	1E_	1e_	[0g#
.	.	1E_	1e_	.
=44	=44	=44	=44	=44
0E]	0B]	0E]	0e]	0g#]
==	==	==	==	==
*-	*-	*-	*-	*-
!!!CDT: 1525/^1526/-1594/2/2
!!!OCY: Italia
!!!AGN: Mass (Paraphrase)
!!!AST: renaissance, vocal
!!!ASW: Gregorian Mass
!!!PWK: Masses, Book Mantuan I
!!!RNB: Cadence finals: A
!!!YOR: Le Opere Complete, v. 18, p. 42
!!!YOO: Rome, Italy: Fratelli Scalera
!!!END: 1992//
!!!EED: John Miller
!!!YEC: Copyright 2000, John Miller
!!!YEN: United States of America
!!!YEM: Rights to all derivative electronic formats reserved.
!!!YEM: Refer to licensing agreement for further details.
!!!YEM: This file must be accompanied by the licensing agreement.
!!!YEM: A copy of the licensing agreement may be found at http://www.music-cog.ohio-state.edu/HumdrumDatabases/Palestrina/license.txt
!!!EMD: converted to Humdrum by Bret Aarden
